!!!COM: Massaino, Tiburzio
!!!CDT:
!!!PTL: Madrigali a sei voci. Libro primo
!!!PPP: Venice
!!!PPR: Angelo Gardano
!!!PDT: 1604
!!!PUB-format:
!!!RISM: M 1294
!!!OTL: Dolor, che sì mi crucii
!!!AGN: Madrigal
!!!SCT: Tam3021417b
!!!SCA: Tam3021417b
!!!original-voices: 6
!!!extant-voices: 6
!!!complete: Y
!!!final: (A)E
**kern	**text	**kern	**text	**kern	**text	**kern	**text	**kern	**text	**kern	**text
*part6	*part6	*part5	*part5	*part4	*part4	*part3	*part3	*part2	*part2	*part1	*part1
*staff6	*staff6	*staff5	*staff5	*staff4	*staff4	*staff3	*staff3	*staff2	*staff2	*staff1	*staff1
*I"Basso	*	*I"Sesto	*	*I"Tenor	*	*I"Alto	*	*I"Quinto	*	*I"Canto	*
*I'B	*	*I'VI	*	*I'T	*	*I'A	*	*I'V	*	*I'C	*
*oclefF4	*	*oclefC4	*	*oclefC4	*	*oclefC3	*	*oclefC1	*	*oclefC1	*
*clefF4	*	*clefGv2	*	*clefGv2	*	*clefG2	*	*clefG2	*	*clefG2	*
*k[]	*	*k[]	*	*k[]	*	*k[]	*	*k[]	*	*k[]	*
*C:	*	*C:	*	*C:	*	*C:	*	*C:	*	*C:	*
*omet(C)	*	*omet(C)	*	*omet(C)	*	*omet(C)	*	*omet(C)	*	*omet(C)	*
*M4/2	*	*M4/2	*	*M4/2	*	*M4/2	*	*M4/2	*	*M4/2	*
=1	=1	=1	=1	=1	=1	=1	=1	=1	=1	=1	=1
!!LO:TX:a:t=Prima parte.
0r	.	2e	Do-	0r	.	0r	.	0r	.	1r	.
.	.	1e	-lor,	.	.	.	.	.	.	.	.
.	.	.	.	.	.	.	.	.	.	2dd	Do-
.	.	2G#X	che	.	.	.	.	.	.	[2ee	-lor,
=2	=2	=2	=2	=2	=2	=2	=2	=2	=2	=2	=2
1r	.	2A	sì	0r	.	0r	.	0r	.	2ee]	.
.	.	2B	mi	.	.	.	.	.	.	2g#X	che
2A	Do-	2.c	cru-	.	.	.	.	.	.	1a	sì
[2A	-lor,	.	.	.	.	.	.	.	.	.	.
.	.	8BL	.	.	.	.	.	.	.	.	.
.	.	8AJ	.	.	.	.	.	.	.	.	.
=3	=3	=3	=3	=3	=3	=3	=3	=3	=3	=3	=3
2A]	.	1e	.	1r	.	0r	.	0r	.	1b	mi
2GG#X	che	.	.	.	.	.	.	.	.	.	.
[1AA	sì	2E	-cii,	2e	Do-	.	.	.	.	1cc	cru-
.	.	2E	che	[2e	-lor,	.	.	.	.	.	.
=4	=4	=4	=4	=4	=4	=4	=4	=4	=4	=4	=4
2AA]	.	1.e	sì	2e]	.	1r	.	0r	.	1b	-cii,
2BB	.	.	.	2G#X	che	.	.	.	.	.	.
2C#X	.	.	.	2.A	sì	2a	Do-	.	.	1r	.
2D	mi	2f	mi	.	.	[2a	-lor,	.	.	.	.
.	.	.	.	4B	.	.	.	.	.	.	.
=5	=5	=5	=5	=5	=5	=5	=5	=5	=5	=5	=5
[0E	cru-	2e	cru-	2c	.	2a]	.	2ee	Do-	1r	.
.	.	2e	-cii,	2B	mi	2G#X	che	1ee	-lor,	.	.
.	.	1r	.	[1e	cru-	2A	sì	.	.	2ee	<Do-
.	.	.	.	.	.	2B	mi	2g#X	che	[2ee	-lor,
=6	=6	=6	=6	=6	=6	=6	=6	=6	=6	=6	=6
0E_	.	2e	Do-	2e]	.	2c	cru-	2a	sì	2ee]	.
.	.	1e	-lor,	2E	-cii,	4B	-cii,	2b	mi	2g#X	che
.	.	.	.	.	.	4B	che	.	.	.	.
.	.	.	.	1r	.	2A	sì	2cc	cru-	2a	sì
.	.	2G#X	che	.	.	2e	mi	[2b	.	2b	mi
=7	=7	=7	=7	=7	=7	=7	=7	=7	=7	=7	=7
0E]	.	1A	sì	0r	.	0e	cru-	4b]	.	1cc	cru-
.	.	.	.	.	.	.	.	4a	.	.	.
.	.	.	.	.	.	.	.	1a	.	.	.
.	.	1B	mi	.	.	.	.	.	.	1b	-cii,>
.	.	.	.	.	.	.	.	2g#X	.	.	.
=8	=8	=8	=8	=8	=8	=8	=8	=8	=8	=8	=8
2AA	-cii,	2c	cru-	4r	.	2e	-cii,	1a	-cii,	4r	.
.	.	.	.	4e	Ché	.	.	.	.	2ee	Ché
4r	.	2A	-cii,	2c#X	non	4r	.	.	.	.	.
4A	Ché	.	.	.	.	4e	Ché	.	.	2cc#X	non
2F#X	non	1r	.	4f#X	m'uc-	2a	non	1r	.	.	.
.	.	.	.	2f#i	-ci-	.	.	.	.	4cc#i	m'uc-
4B	m'uc-	.	.	.	.	4f#X	m'uc-	.	.	[2dd#X	-ci-
[4B	-ci-	.	.	4B	-di o-	[4f#i	-ci-	.	.	.	.
=9	=9	=9	=9	=9	=9	=9	=9	=9	=9	=9	=9
4B]	.	2r	.	1B	-mai?	4f#iy]	.	0r	.	4dd#]	.
4E	-di o-	.	.	.	.	4g	-di o-	.	.	4ee	-di o-
1E	-mai?	2e	tu	.	.	2g	-mai?	.	.	2b	-mai?
.	.	2G#X	se	4B	tu	4r	.	.	.	4b	tu
.	.	.	.	2B	se	4e	tu	.	.	2b	se
4BB	tu	2F#X	pur	.	.	[2d#X	se	.	.	.	.
[4BB	se	.	.	4B	pur	.	.	.	.	4b	pur
=10	=10	=10	=10	=10	=10	=10	=10	=10	=10	=10	=10
*	*	*	*	*lig	*	*	*	*	*	*	*
4BB]	.	1B	len-	1F#X	len-	2d#]	.	1r	.	1b	len-
4BB	pur	.	.	.	.	.	.	.	.	.	.
2BB	len-	.	.	.	.	2d#i	pur	.	.	.	.
1GG#X	-to!	1B	-to!	1G#X	.	1e	len-	2r	.	1b	-to!
*	*	*	*	*Xlig	*	*	*	*	*	*	*
.	.	.	.	.	.	.	.	2ee	For-	.	.
=11	=11	=11	=11	=11	=11	=11	=11	=11	=11	=11	=11
0r	.	2r	.	2A	-to!	2e	-to!	4ee	-se	2r	.
.	.	.	.	.	.	.	.	2ee	la-	.	.
.	.	2e	For-	2r	.	2g	For-	.	.	4b	For-
.	.	.	.	.	.	.	.	8cc	-sci	4e	-se
.	.	.	.	.	.	.	.	8b	l'of-	.	.
.	.	4e	-se	1r	.	4g	-se	2ee	-fi-	2.b	la-
.	.	2e	la-	.	.	2g	la-	.	.	.	.
.	.	.	.	.	.	.	.	4ee	-cio a	.	.
.	.	8c	-sci	.	.	8e	-sci	8ee	la	8a	-sci
.	.	8B	l'of-	.	.	8f#X	l'of-	8dd	mia	8b	l'of-
=12	=12	=12	=12	=12	=12	=12	=12	=12	=12	=12	=12
0r	.	2e	-fi-	0r	.	2g#X	-fi-	2.ee	ma-	2b	-fi-
.	.	4A	-cio a	.	.	4a	-cio a	.	.	4cc#X	-cio a
.	.	2A	la	.	.	2a	la	4ee	-no, a	2cc#i	la
.	.	.	.	.	.	.	.	4ee	la	.	.
.	.	4d	mia	.	.	4a	mia	4ff	mia	4dd	mia
.	.	2d	ma-	.	.	[2a	ma-	2ff	ma-	[2dd	ma-
=13	=13	=13	=13	=13	=13	=13	=13	=13	=13	=13	=13
1r	.	1e	-no.	1r	.	2a]	.	1ee	-no.	4dd]	.
.	.	.	.	.	.	.	.	.	.	4cc	.
.	.	.	.	.	.	2g#X	-no.	.	.	2b	.
4A	Io	4e	Io	4c#X	Io	1r	.	4a	Io	2ee	-no.
4.A	son,	4.e	son,	4.c#i	son,	.	.	4.a	son,	.	.
.	.	.	.	.	.	.	.	.	.	2r	.
8D	io	8f	io	8d	io	.	.	8a	io	.	.
8D	son	8f	son	8d	son	.	.	8a	son	.	.
8E	con-	8e	con-	8B	con-	.	.	8g#X	con-	.	.
=14	=14	=14	=14	=14	=14	=14	=14	=14	=14	=14	=14
2AA	-ten-	2e	-ten-	2c	-ten-	0r	.	4a	-ten-	0r	.
.	.	.	.	.	.	.	.	4a	-to,	.	.
4AA	-to	2e	-to	4A	-to	.	.	2r	.	.	.
8A	Ch'el-	.	.	8c	Ch'el-	.	.	.	.	.	.
8G	-la	.	.	8B	-la	.	.	.	.	.	.
4A	pren-	4r	.	4c	pren-	.	.	1r	.	.	.
8G	-da	8e	Ch'el-	8B	-da	.	.	.	.	.	.
8F	tal	8d	-la	8A	tal	.	.	.	.	.	.
[2G	cu-	4e	pren-	4B	cu-	.	.	.	.	.	.
.	.	8d	-da	[4c	.	.	.	.	.	.	.
.	.	8c	tal	.	.	.	.	.	.	.	.
=15	=15	=15	=15	=15	=15	=15	=15	=15	=15	=15	=15
2G]	.	2d	cu-	4c]	.	2r	.	1r	.	2r	.
.	.	.	.	4B	.	.	.	.	.	.	.
2C	-ra,	2e	-ra,	2c	-ra,	2.g	Poi	.	.	2.ee	Poi
2.E	Poi	1r	.	4r	.	.	.	4r	.	.	.
.	.	.	.	2G#X	Poi	4e	che	2ee	Poi	4b	che
.	.	.	.	.	.	4e	tu	.	.	2b	tu
4BB	che	.	.	4B	che	8g	la	4dd	che	.	.
.	.	.	.	.	.	8f#X	ri-	.	.	.	.
=16	=16	=16	=16	=16	=16	=16	=16	=16	=16	=16	=16
4BB	tu	1r	.	4B	tu	4g	-cu-	4dd	tu	4r	.
8AA	la	.	.	8E	la	4e	-si, o	8cc	la	8a	la
8GG	ri-	.	.	8G	ri-	.	.	8b	ri-	8b	ri-
2C	-cu-	.	.	4G	-cu-	2e	che	2a	-cu-	4cc	-cu-
.	.	.	.	4E	-si,	.	.	.	.	4a	-si, o
2BB	-si, o	4r	.	1r	.	2d	non	2b	-si, o	4a	che,
.	.	4D	o	.	.	.	.	.	.	4g#X	o
2AA	che	2A	che	.	.	2e	puo-	4cc	che	4a	che
.	.	.	.	.	.	.	.	4cc	non	4a	non
=17	=17	=17	=17	=17	=17	=17	=17	=17	=17	=17	=17
2E	non	2G#X	non	2r	.	1.e	-i,	2b	puo-	2b	puo-
1A	puo-	2A	puo-	2c	non	.	.	2a	-i.	2e	-i.
.	.	1E	-i.	1B	puo-	.	.	1b	Ohi-	2r	.
2G#X	-i.	.	.	.	.	2e	o	.	.	[2ee	Ohi-
=18	=18	=18	=18	=18	=18	=18	=18	=18	=18	=18	=18
0r	.	1c	Ohi-	1A	-i.	2.e	che	2e	-mè,	2ee]	.
.	.	.	.	.	.	.	.	1ee	<Ohi-	2a	-mè,
.	.	.	.	.	.	4a	non	.	.	.	.
.	.	1B	-mè,	1r	.	2g	puo-	.	.	1b	<Ohi-
.	.	.	.	.	.	2d	-i.	2g#X	-mè,	.	.
=19	=19	=19	=19	=19	=19	=19	=19	=19	=19	=19	=19
1A	Ohi-	0r	.	1.c	Ohi-	2r	.	2a	Ohi-	0e	-mè,>
.	.	.	.	.	.	1a	Ohi-	2e	-mè,>	.	.
1E	-mè,	.	.	.	.	.	.	1r	.	.	.
.	.	.	.	2G	-mé,	2c#X	-mè,	.	.	.	.
=20	=20	=20	=20	=20	=20	=20	=20	=20	=20	=20	=20
4D	se	0r	.	4F#X	se	4d	se	4a	se	0r	.
4D	nul-	.	.	4F#i	nul-	4d	nul-	4a	nul-	.	.
4D	-la	.	.	4F#i	-la	4d	-la	4a	-la	.	.
2BB	man-	.	.	2F#i	man-	2d#X	man-	2b	man-	.	.
2BB	-ca	.	.	2F#i	-ca	2d#i	-ca	2b	-ca	.	.
4E	A	.	.	4G#X	A	4e	A	4b	A	.	.
=21	=21	=21	=21	=21	=21	=21	=21	=21	=21	=21	=21
4E	la	0r	.	4G#i	la	4e	la	4b	la	0r	.
4E	cer-	.	.	4G#i	cer-	4e	cer-	4b	cer-	.	.
2.C	-tez-	.	.	2.c	-tez-	2.g	-tez-	2.ee	-tez-	.	.
4AA	-za o-	.	.	4e	-za o-	4c	-za o-	4ee	-za o-	.	.
[2AA	-ma-	.	.	[2d	-ma-	2f	-ma-	[2a	-ma-	.	.
=22	=22	=22	=22	=22	=22	=22	=22	=22	=22	=22	=22
2AA]	.	1r	.	2d]	.	1e	-i,	2a]	.	1r	.
2AA	-i,	.	.	2c#X	-i,	.	.	2a	-i,	.	.
1r	.	4A	E	1r	.	4e	E	4cc	E	4a	E
.	.	4A	nul-	.	.	4e	nul-	4cc	nul-	4a	nul-
.	.	4A	-la	.	.	4e	-la	4cc	-la	4a	-la
.	.	[4A	man-	.	.	[4e	man-	[4cc	man-	[4a	man-
=23	=23	=23	=23	=23	=23	=23	=23	=23	=23	=23	=23
0r	.	4A]	.	0r	.	4e]	.	4cc]	.	4a]	.
.	.	2G	-ca	.	.	2g	-ca	2dd	-ca	2b	-ca
.	.	4E	al	.	.	4g	al	4ee	al	4cc	al
.	.	2F	col-	.	.	2f	col-	2cc	col-	2a	col-
.	.	4F	-mo	.	.	4f	-mo	4dd	-mo	4a	-mo
.	.	4F	De	.	.	4f	De	4dd	De	4a	De
=24	=24	=24	=24	=24	=24	=24	=24	=24	=24	=24	=24
0r	.	4F	la	0r	.	4f	la	4dd	la	4a	la
.	.	4F	mi-	.	.	4f	mi-	4dd	mi-	4a	mia
.	.	2c	-se-	.	.	2.g	-se-	2ee	-se-	2cc	mi-
.	.	2G	-ria	.	.	.	.	2dd	-ria	2b	-se-
.	.	.	.	.	.	4d	-ria	.	.	.	.
.	.	[2E	mi-	.	.	4e	mi-	4cc#X	mi-	4g	-ria
.	.	.	.	.	.	4f	.	[4dd	.	4a	mi-
=25	=25	=25	=25	=25	=25	=25	=25	=25	=25	=25	=25
1r	.	2E]	.	1r	.	2e	.	4dd]	.	2g	.
.	.	.	.	.	.	.	.	4cc#i	.	.	.
.	.	2D	-a,	.	.	4A	-a,	2dd	-a,	2f#X	-a,
.	.	.	.	.	.	4d	Che	.	.	.	.
4A	Che	4A	Che	4c	Che	2e	ba-	4r	.	4a	Che
2E	ba-	2G#X	ba-	2B	ba-	.	.	4ee	Che	2b	ba-
.	.	.	.	.	.	2e	-do?	4ee	ba-	.	.
4E	-do?	4G#i	-do?	4B	-do?	.	.	4ee	-do?	4b	-do?
=26	=26	=26	=26	=26	=26	=26	=26	=26	=26	=26	=26
1r	.	0r	.	1r	.	1r	.	1r	.	0r	.
2A	che	.	.	4r	.	2c	che	2e	che	.	.
.	.	.	.	2A	che	.	.	.	.	.	.
2E	più a-	.	.	.	.	2B	più a-	2e	più a-	.	.
.	.	.	.	4G	più a-	.	.	.	.	.	.
=27	=27	=27	=27	=27	=27	=27	=27	=27	=27	=27	=27
4BB	-spet-	1r	.	4F#X	-spet-	4B	-spet-	4d#X	-spet-	1r	.
4BB	-to?	.	.	4F#i	-to?	4B	-to?	4d#i	-to?	.	.
2r	.	.	.	2r	.	2r	.	2r	.	.	.
1r	.	2d	O	1r	.	1r	.	2a	O	2f#X	O
.	.	2G	Daf-	.	.	.	.	2b	Daf-	2g	Daf-
=28	=28	=28	=28	=28	=28	=28	=28	=28	=28	=28	=28
0r	.	4c	-ne, o	0r	.	0r	.	4e	-ne, o	4g	-ne, o
.	.	2F	Daf-	.	.	.	.	2cc	Daf-	2a	Daf-
.	.	4F	-ne,	.	.	.	.	4cc	-ne,	4a	-ne,
.	.	4c	A	.	.	.	.	4g	A	4e	A
.	.	4c	que-	.	.	.	.	4g	que-	4e	que-
.	.	4c	-sto a-	.	.	.	.	4a	-sto a-	4e	-sto a-
.	.	[4d	-ma-	.	.	.	.	[4b	-ma-	[4f#X	-ma-
=29	=29	=29	=29	=29	=29	=29	=29	=29	=29	=29	=29
0r	.	4d]	.	0r	.	0r	.	4b]	.	4f#]	.
.	.	4d	-ro	.	.	.	.	4cc	-ro	4g	-ro
.	.	[2e	fin	.	.	.	.	[2cc	fin	[2g	fin
.	.	8e]	.	.	.	.	.	8cc]	.	8g]	.
.	.	8c	tu	.	.	.	.	8a	tu	8e	tu
.	.	8c	mi	.	.	.	.	8a	mi	8f	mi
.	.	8c	sal-	.	.	.	.	8a	sal-	8e	sal-
.	.	2B	-va-	.	.	.	.	2g#X	-va-	2d	-va-
=30	=30	=30	=30	=30	=30	=30	=30	=30	=30	=30	=30
2r	.	1A	-sti,	2e	A	1r	.	1a	-sti,	2c#X	-sti,
2AA	A	.	.	4d	que-	.	.	.	.	4r	.
.	.	.	.	4c	-sto	.	.	.	.	4ee	A
4BB	que-	2r	.	4B	fin	2r	.	1r	.	4dd	que-
4C	-sto	.	.	4A	a-	.	.	.	.	4cc	-sto
4D	fin	4r	.	4B	-ma-	4r	.	.	.	4b	fin
4C	a-	4e	A	4E	-ro,	4A	A	.	.	4a	a
=31	=31	=31	=31	=31	=31	=31	=31	=31	=31	=31	=31
[0BB	-ma-	4d	que-	2r	.	4B	que-	4r	.	4g#X	-ma-
.	.	4c	-sto	.	.	4c	-sto	4ee	A	4a	.
.	.	4B	fin	2G#X	A	4d	fin	4dd	que-	4b	.
.	.	4A	a-	.	.	4e	a-	4cc	-sto	4cc	.
.	.	2B	-ma-	2G#i	que-	[1d	-ma-	2b	fin	[1dd	.
.	.	2c	.	2A	-sto	.	.	2a	a-	.	.
=32	=32	=32	=32	=32	=32	=32	=32	=32	=32	=32	=32
1BB]	.	1B	.	8.BL	fin	1d]	.	2a	-ma-	1dd]	.
.	.	.	.	16c	.	.	.	.	.	.	.
.	.	.	.	8dJ	.	.	.	.	.	.	.
.	.	.	.	8DJL	a-	.	.	.	.	.	.
.	.	.	.	2D	-ma-	.	.	2g#X	.	.	.
=33	=33	=33	=33	=33	=33	=33	=33	=33	=33	=33	=33
00AAl	-ro?	00El	-ro?	00Al	-ro?	00el	-ro?	00al	-ro?	00cc#Xl	-ro?
==	==	==	==	==	==	==	==	==	==	==	==
*-	*-	*-	*-	*-	*-	*-	*-	*-	*-	*-	*-
!!!system-decoration: [*]
!!!RDF**kern: i = editorial accidental
!!!RDF**kern: l = terminal long
!!!ENC: Emiliano Ricciardi
!!!END: 2019/01/06
!!!EED: Coluzzi, Seth
!!!EEV: 2019/01/21
!!!YEC: Copyright 2018 Emiliano Ricciardi, All Rights Reserved
!!!ONB: Translated from MusicXML on 2019/01/21
!!@@BEGIN:	VERSEDATA
!!@CATALOGNUM:	Tam3021417
!!@LAST_MODIFIED: 2020/07/12
!!@ACT:         III
!!@SCENE:       2
!!@VERSE:       1417
!!@TITLE:       Dolor, che si mi crucii
!!@MANUSRC:	A-Am, A-Au, A-Br, A-CM, A-F, A-Ub
!!@PRINTSRC:	A-1580D, A-1580M, A-1581B, A-1581B<sub>bis</sub>, A-1581M, A-1581M<sub>bis</sub>, A-1581O, A-1581V, A-1582B, A-1583M, A-1583V, A-1584A, A-1585C, A-1585V, A-1585V<sub>bis</sub>, A-1588B, A-1589M, A-1589V, A-1590Mb, A-1590Mv, A-1591M, A-1591W, A-1592B, A-1596B, A-1596M, A-1599Bf, A-1599Bp, A-1600R, A-1601Bf, A-1601Bp, A-1602B, A-1603Bf, A-1603Bv, A-1603Z, A-1605R, A-1606Z, A-1608D, A-1608DP, A-1609Bf, A-1609Bv, A-1609Z, A-1611D, A-1614GT, A-1617D, A-1618B, A-1619D, A-1619I, A-1620V, A-1622D, A-1623A, A-1624M, A-1624S, A-1624T, A-1625U, A-1628U, A-1632D, A-1634R
!!@@BEGIN:	VERSES
!!@ABOUTIT:	
!!@ABOUTEN:	
!!@EDITOR:	Solerti, Angelo
!!@EDITION_TITLE: Opere minori in versi di Torquato Tasso. Edizione critica sugli autografi e sulle antiche stampe.
!!@EDITION_LOC:	Bologna
!!@EDITION_PUB:	Zanichelli
!!@EDITION_DATE:  1895
!!@EDITION_VOL:	3
!!@EDITION_PAGE:
!!@TRANSLATOR:	Emiliano Ricciardi and Amyrose McCue Gill
!!@VERSE:	
!!	AMINTA: Dolor, che sì mi crucii,
!!	Che non m'uccidi homai? tu sei pur lento!
!!	Forse lasci l'uffitio a la mia mano.
!!	Io sono, io son contento
!!	Ch'ella prenda tal cura,
!!	Poi che tu la ricusi, o tu non puoi.
!!	Ohimè, se nulla manca
!!	A la certezza homai,
!!	E nulla manca al colmo
!!	De la miseria mia,
!!	Che bado? che più aspetto? O Dafne, Dafne,
!!	A questo amaro fin tu mi salvasti?
!!	A questo fine amaro?
!!@TVERSE:
!!	AMINTA: Pain, that so torments me,
!!	Why do you not kill me already? You are too slow!
!!	Perhaps you leave the killing for my [own] hand.
!!	I am, I am happy
!!	That she takes such care,
!!	Since either you refuse her, or you cannot.
!!	Oh dear, if nothing is lacking
!!	From certainty now,
!!	And nothing is lacking from the peak
!!	Of my misery,
!!	What do I care? What more am I waiting for? O Daphne, Daphne,
!!	For this bitter end you saved me?
!!	For this end [so] bitter?
!!@@END:		VERSES
!!@NEW_CRIT_ED:   Torquato Tasso, <i>Aminta. "Princeps."</i>, ed. Matteo Navone, vol. 9 of Commissione Nazionale per l'Edizione delle opere del Tasso. Studi e Testi (Alessandria: Edizioni dell'Orso, 2014).
!!@ATTRIBUTION_ABOUT:	
!!@DATING:	1573
!!@DEDICATEE:	
!!@COMMENTARY:
!!@@END:		VERSEDATA
!!@@BEGIN: SETTING
!!@CATALOGNUM:	Tam3021417b
!!@ACT:		III
!!@SCENE:		2
!!@VERSE:		1417
!!@TITLE:	Dolor, che sì mi crucii
!!@COMPOSER:	Massaino, Tiburzio
!!@PRINCEPSTITLE:	Madrigali a sei voci. Libro primo
!!@PRINCEPSLOC:	Venice
!!@NORMLOC:	Venice
!!@NORMPUB:	Angelo Gardano
!!@NORMPUBSHORT:	Gardano
!!@PRINCEPSPUB:	Angelo Gardano
!!@PRINCEPSYEAR:	1604
!!@PRINCEPSRISM:	M 1294
!!@OVOICES:	6
!!@EXTANTVOICES:	6
!!@OMENSURATION:	C
!!@OCLEFS:	C1,C1,C3,C4,C4,F4
!!@OTIME:		
!!@OKEYSIG:	-
!!@FINAL:		(A)E
!!@TIMPEDITOR:	Coluzzi, Seth
!!@PARTS:		1 of 2
!!@REPRINTS:	
!!@@END: SETTING
